X:1
T:Title
%%score 1 { 2 | 3 }
L:1/8
M:4/4
K:A
V:1 treble nm="Akkordion"
V:2 treble nm="Grand Piano"
V:3 bass 
V:1
 z4 z2[Q:1/4=100] E>A | c4- cECF | E4 C2 G>A | B4- BAGA | B6 E>A | c4- cECF | E4 C2 G>A | %7
 B4- BE c>B | A6 G>A | B4- B^ABc | d4 F2 G>A | B4- B^AB=c | c6 E>A | c4- cECF | E4 C2 Ac | %15
[M:9/8] e3- e2 A c B2 |[M:7/8] A-A-A- A- A3 |] %17
V:2
 z8 | z2 [CE]>[CE] .[CE]2 .[CE]2 | .[CE]2 .[CE]2 .[CE]2 .[CE]2 | z2 E>E .E2 .E2 | .E2 .E2 E2 z2 | %5
 z2 [CE]>[CE] [CE]2 .[CE]2 | .[CE]2 .[CE]2 .[CE]2 .[CE]2 | z2 E>E .E2 .E2 | [CA]2 [DA]2 [CA]2 z2 | %9
 z2 G>G .G2 .F2 | .E2 .E2 D2 .E2 | z2 G>G .G2 .F2 | .[CE]2 .[CE]2 .[CE]2 z2 | %13
 z2 [CE]>[CE] .[CE]2 .[CE]2 | .[CE]2 .[CE]2 .[CE]2 .[CE]2 |[M:9/8] z2 A- A/A/ .A2 G3 | %16
[M:7/8] [CA]2 [DA]2 [CA]3 |] %17
V:3
 z8 | z2 [A,,A,]>[A,,A,] .[A,,A,]2 .[A,,A,]2 | .[A,,A,]2 .[A,,A,]2 .[A,,A,]2 .[A,,A,]2 | %3
 z2 [E,G,D]>[E,G,D] .[E,G,D]2 .[E,G,D]2 | .[E,G,D]2 .[E,G,D]2 [E,G,D]2 z2 | %5
 z2 [A,,A,]>[A,,A,] [A,,A,]2 .[A,,A,]2 | .[A,,A,]2 .[A,,A,]2 .[A,,A,]2 .[A,,A,]2 | %7
 z2 [E,G,D]>[E,G,D] .[E,G,D]2 .[E,G,D]2 | [A,,A,]2 [A,,F,]2 [A,,E,]2 z2 | %9
 z2 [E,D]>[E,B,D] .[E,B,D]2 .[E,A,D]2 | .[E,G,D]2 .[E,G,D]2 .[E,G,]2 .[E,B,D]2 | %11
 z2 [E,B,D]>[E,B,D] .[E,B,D]2 .[E,A,D]2 | .[A,,A,]2 .[A,,A,]2 .[A,,A,]2 z2 | %13
 z2 [A,,A,]>[A,,A,] .[A,,A,]2 .[A,,A,]2 | .[A,,A,]2 .[A,,A,]2 .[A,,A,]2 .[A,,A,]2 | %15
[M:9/8] z2 [E,A,C]- [E,A,C]/[E,A,C]/ .[E,A,C]2 [E,D]3 |[M:7/8] [A,,E,]2 [A,,F,]2 [A,,E,]3 |] %17

